X: 42602
T: Where's The Light?
R: jig
M: 6/8
K: Edorian
gfe fed|Bcd e3|eBB dBB|Bcd e2f|
gfe fed|Bcd e3|dBB cAA|G3 G2 f:|
Aff Agg|age f3|eBB dBB|deB deB|
Aff Agg|age f2g|age dcd|edB A3:|

